X:99
T:Reel 99
M:4/4
K:Gmaj
L:1/8
D2|GBAF GBdc|BcAB cBGA|FDDC B,DGB|AdDE FDDC|B,DGB ABAg|fedc dedc|Bggf gedc|BGAF G2|Bc|dggf g2ga|bgga gfdg|fAAA fdfa|gfge fdec|dggf g2fg|baga bgag|fd (3cdd fgaf|bgfa gedc|BGBG DGBd|cBcd edcA|DFAB cAFA|c
